!! 00006] TT[TB
!! Eigene Aufnahme
!!!OTL: Maofeng xiyÅ
!!!ARE: Asia, China,Guizhou
!! Ethnic Group: Han
!! II, 154 (1)
!!!SCT: C0147
!!!YEM: Copyright 1995, estate of Helmut Schaffrath.
**kern
*ICvox
*Ivox
*M3/4
*k[f#]
*G:
{8e
[8e
2e]
=1
16b
16dd
[8ee
2ee]}
=2
{16ee
16dd
16b
16ee
16dd
16b
4.a
=3
16ee
16dd
16b
16ee
4dd
4r}
=4
{8e
[8e
2e]
=5
16b
16dd
[8ee
2ee]}
=6
{16dd
16b
16a
16b
16a
16g
4.e
=7
16dd
16b
16a
16b
2a}
==
!!!ONB: ESAC (Essen Associative Code) Database: CHINA_087
!!!AMT: simple triple
!!!AIN: vox
!!!EED: Helmut Schaffrath
!!!EEV: 1.0
*-
